X:1
T:Inni del Primo Tuono
T:Inni del Primo Tuono
T:Girolamo Diruta (1560-?)
T:from Il Transilvano, II. parte, 1609
C:Girolamo Diruta (1560-?)
%%score { ( 1 2 ) | ( 3 4 ) }
L:1/8
M:4/2
K:C
V:1 treble nm="Pipe Organ" snm="Org."
V:2 treble 
V:3 bass 
V:4 bass 
V:1
"^1. Pange lingua gloriosi" D12 D4 | D4 C4 F4 F4 | G8 A8 | A4 A6 B2 c4 | c4 _B8 A4- | A4 G4 F8 | %6
 _B6 A2 G4 F4- | F2 E2 D6 ^CB, C4 | D16 ||[M:4/2]"^2. Ave Maris stella" D8 A8 | B4 G4 A6 B2 | %11
 c8 d4 c2 B2 | c2 B2 A4 G4 F4 | D4 A6 ^G^F G4 | A8 A8 | z4 A6 G2 G2 FE | F2 G2 A2 GF E8 | ^F16 |] %18
V:2
 A,12 A,4 | A,4 A,4 A,4 A,4 | C8 C4 C4- | C2 C2 C4 F4 E4 | E8 F4 F4- | F4 E4 D8 | D8 D4 D4- | %7
 D2 C=B, A,4 A,8 | A,16 ||[M:4/2] z8 z4[I:staff +1] A,4 | D4 E4 C4[I:staff -1] D4 | E4 F4 ^F4 G4- | %12
 G4 =F4 E4 D4 | D4 E4 E8 | E4 F4 E8 | F8 E4- E2 z2 | D4 D6 ^CB, C4 | D16 |] %18
V:3
 F,12 F,4 | F,4 E,4 F,4 F,4 | F,4 E,4 F,4 A,4- | A,2 A,2 A,4 D4 G,4 | G,8 C8 | %5
 C6 =B,2 A,2 G,2 F,4 | F,4 G,4[I:staff -1] _B,4[I:staff +1] A,4- | A,2 G,2 F,2 E,D, E,8 | ^F,16 || %9
[M:4/2] z16 | z8 z4 D,4 | A,8 B,4 G,4 | A,6 B,2 C4 A,4 | B,4 C4 B,8 | A,4[I:staff -1] D4- D4 ^C4 | %15
 D8[I:staff +1] x8 | D,2 E,2 F,2 G,2 A,4 A,,4 | D,16 |] %18
V:4
 D,12 D,4 | D,4 A,,4 D,4 D,4 | C,8 F,,4 F,4- | F,2 F,2 F,4 D,4 C,4 | C,4 C,4 F,8 | C,8 D,6 C,2 | %6
 _B,,2 A,,2 G,,4- G,,4 D,4 | A,,8 A,,8 | D,16 ||[M:4/2] z16 | z16 | A,,8 D,4 E,4 | %12
 C,4 D,4 E,4 F,4 | G,4 A,4 E,8 | z8 A,,8 | D,8 E,4 C,4 | x16 | x16 |] %18

